X:1
T:Ellon, 76.76 D
T:Ellon, 76.76 D
T:George Frederick Root, 1866
T:Public Domain Courtesy of the Cyber Hymnal™
C:George Frederick Root, 1866
Z:Public Domain
Z:Courtesy of the Cyber Hymnal™
%%score ( 1 2 ) ( 3 4 )
L:1/8
Q:1/4=115
M:4/4
K:F
V:1 treble 
V:2 treble 
V:3 bass 
V:4 bass 
V:1
 C2 | [CF]2 [DF]2 [CF]2 F2 | (A3 G) F2 [CF]2 | [DG]2 [DG]2 [CF]2 [CE]2 | [CF]6 F2 | %5
 [FA]2 [FA]2 [FA]2 [FA]2 | (c3 B) [FA]2 [FA]2 | G2 c2 [Gc]2 [F=B]2 | [Ec]6 [_Ec]2 | %9
 [Dd]2 [Fc]2 [GB]2 [FA]2 | (c3 B) [EG]2 G2 | [FA]2 [CF]2 [CE]2 F2 | [EG]6 C2 | %13
 [CF]2 [DF]2 [CF]2 F2 | (A3 G) F2 [CF]2 | [DG]2 [DG]2 [CF]2 [CE]2 | [CF]6 |] %17
V:2
 C2 | x6 F2 | E4 F2 x2 | x8 | x6 F2 | x8 | G4 x4 | G2 (EF) x4 | x8 | x8 | E4 G2 x2 | x6 F2 | %12
 x6 C2 | x6 F2 | E4 F2 x2 | x8 | x6 |] %17
V:3
 C2 | [A,C]2 B,2 [A,C]2 [F,A,]2 | (C3 B,) [F,A,]2 [A,,F,]2 | [B,,B,]2 [B,,B,]2 [C,A,]2 [C,G,]2 | %4
 [F,A,]6 [F,A,]2 | [F,C]2 C2 [A,C]2 [F,C]2 | [E,C]4 [F,C]2 [F,C]2 | [E,C]2 (CD) [G,E]2 [G,D]2 | %8
 [C,C]6 [F,A,]2 | [B,,B,]2 [F,A,]2 [E,C]2 [F,C]2 | [C,C]4 [C,C]2 [E,C]2 | %11
 [F,C]2 A,2 [G,B,]2 [F,A,]2 | [C,C]6 [E,B,]2 | [F,A,]2 B,2 [A,C]2 [D,A,]2 | %14
 (C3 B,) [D,A,]2 [A,,F,]2 | [B,,B,]2 [B,,B,]2 [C,A,]2 [C,G,]2 | [F,A,]6 |] %17
V:4
 C2 | x2 B,2 x4 | C,4 x4 | x8 | x8 | x2 C2 x4 | x8 | x2 A,2 x4 | x8 | x8 | x8 | x2 A,2 x4 | x8 | %13
 x2 B,2 x4 | C,4 x4 | x8 | x6 |] %17

